public/assets/(common)/accordion-icons/accordion-arrow-down.svg

<svg fill="none" height="20" viewBox="0 0 39 20" width="39" xmlns="http://www.w3.org/2000/svg" xmlns:xlink="http://www.w3.org/1999/xlink"><clipPath id="a"><path d="m0 0h20v39h-20z" transform="matrix(0 1 -1 0 39 0)"/></clipPath><g clip-path="url(#a)"><path d="m28.3074 4.08665 1.7225 1.76833-9.3877 9.63162c-.1504.1553-.3293.2785-.5263.3626s-.4083.1274-.6217.1274-.4247-.0433-.6218-.1274c-.197-.0841-.3759-.2073-.5263-.3626l-9.39249-9.63162 1.72249-1.76667 8.8156 9.03999z" fill="#282828"/></g></svg>

<svg width="39" height="20" viewBox="0 0 39 20" fill="none" xmlns="http://www.w3.org/2000/svg">
<g clip-path="url(#clip0_502_80)">
<path d="M28.3074 4.08665L30.0299 5.85498L20.6422 15.4866C20.4918 15.6419 20.3129 15.7651 20.1159 15.8492C19.9189 15.9333 19.7076 15.9766 19.4942 15.9766C19.2808 15.9766 19.0695 15.9333 18.8724 15.8492C18.6754 15.7651 18.4965 15.6419 18.3461 15.4866L8.95361 5.85498L10.6761 4.08831L19.4917 13.1283L28.3074 4.08665Z" fill="#282828"/>
</g>
<defs>
<clipPath id="clip0_502_80">
<rect width="20" height="39" fill="white" transform="matrix(0 1 -1 0 39 0)"/>
</clipPath>
</defs>
</svg>
